X:1
T:Music, Sweet Music
M:3/4
L:1/4
K:C
G/2-A/2| B Bc/2-B/2| A AB/2-A/2| G A F| G2B/2-c/2| d de/2-d/2| c cd/2-c/2|\
 B c A| B3| G G2| D D2| G C D| G2||

